X: 1949
T: Vücud İkliminin Sultânısın Sen
C: Hacı Ârif Bey
O: Turkey
F: http://compmusic.upf.edu/node/140
N: nihavent--sarki--curcuna--vucud_ikliminin--haci_arif_bey
N: makam= nihavent
N: form= sarki
N: usul= curcuna = 10/8
M: 10/8
L: 1/16
K: C _B _e  
Q: 1/4=204
%%MIDI tuningsystem comma53
e8-e2e2 d2d2 c2B2  | d8-d2d2 c2B2 A2G2  | \
w:  ARANAĞME  |   | 
G2^F2 G2A2 B2c2 d2e2 d2c2  | 
w:   | 
d2e2 ^f2g2 a2f2 e2d4z2  | e8-e2e2 d2d2 c2B2  | \
w:   |   | 
d8-d2d2 c2B2 A2G2  | 
w:   | 
G2^F2 G2A2 B2c2 d2e2 d2c2  | A4 B2A2 G2G2 ^F2GA Bcdf  | 
w:   |   | 
e8-e2e2 d2d2 c2B2  | d8-d2d2 c2B2 A2G2  | \
w:  ARANAĞME  |   | 
G2^F2 G2A2 B2c2 d2e2 d2c2  | 
w:   | 
d2e2 ^f2g2 a2f2 e2d4z2  | e8-e2e2 d2d2 c2B2  | \
w:   |   | 
d8-d2d2 c2B2 A2G2  | 
w:   | 
G2^F2 G2A2 B2c2 d2e2 d2c2  | A4 B2A2 G2G2 ^F2BA GFGA  | 
w:   |   | 
d4 B2A2 G2G8-G2  | D6E2 ^F2G8z2  | d4 d4 c2d3cB6  | \
w:  *  Vü cud  *  ik  |  li mi *  nin   |  sul *  *  tâ  | 
c4 d4 c2d2 c2B2 A2G2  | 
w:  nı sın  *  sen   | 
z4 B2A2 G2G8-G2  | D6E2 ^F2G8z2  | d8-d2^c8-^c2  | \
w:  Vü cud  *  ik  |  li mi *  nin   |  sul tâ  | 
d4 e4 d2d4AB cABc  | 
w:  nı sın  *  sen  SAZ  | 
d4 c2d4d4c4B2  | c4 B2B2 A2B8z2  | B4 A2B4c4d4c2  | \
w:  *  E fen dim   |  der *  di *  min   |  der *  *  mâ  | 
c2B2 B4 A2B2 A2G2 ^F2G2  | 
w:  nı *  sın  *  sen   | 
z4 B2A2 G2G8-G2  | B2A2 G2G2 ^F2G8z2  | \
w:  E fen *  dim   |  der *  *  di *  min   | 
d4 ^c2e4d2 c2B2 A2G2  | 
w:  der *  *  mâ  | 
B2A2 G2{A}G2 ^F2G4e2 e2e2  | g4 ^f2g4g4f4e2  | \
w:  nı *  sın  *  *  *  sen  SAZ  |  *  Bu  cis mi   | 
e6e2 d2d8-d2  | g4 ^f2g4a4b4a2  | 
w:  nâ tû *  vâ  |  nın  *  *  câ  | 
a2g2 g4 b2a2 g2^f2 e2d2  | g4 ^f2g4g4f4e2  | \
w:  nı *  sın  *  sen   |  *  Bu  cis mi   | 
e6e2 d2d8-d2  | ^c4 c2d4e2 d2g4^f2  | 
w:  nâ tû *  vâ  |  nın  *  *  câ  | 
^f4 e2{f}e2 d2d4dc BABc  | d4 c2d4d4c4B2  | \
w:  nı  sın  *  *  *  sen  SAZ  |  *  E fen dim   | 
c4 B2B2 A2B8z2  | 
w:  der *  di *  min   | 
B4 A2B4c4d4c2  | c2B2 B4 A2B2 A2G2 ^F2G2  | \
w:  der *  *  mâ  |  nı *  sın  *  sen   | 
z4 B2A2 G2G8-G2  | 
w:  E fen *  dim   | 
B2A2 G2G2 ^F2G8z2  | d4 ^c2e4d2 c2B2 A2G2  | \
w:  der *  *  di *  min   |  der *  *  mâ  | 
B2A2 G2{A}G2 ^F2G4|
w:  nı *  sın  *  *  *  sen   | 


